apps/expo/assets/Logo.svg

<svg width="84" height="31" viewBox="0 0 84 31" fill="none" xmlns="http://www.w3.org/2000/svg">
<path d="M73.7961 18.7946L73.9863 19.0609L74.3064 18.9932L78.2424 18.1612L78.948 18.012L78.5608 17.4036C78.4313 17.2 78.3198 16.9878 78.2262 16.7666C78.1628 16.5513 78.127 16.2898 78.127 15.976C78.127 15.3048 78.2696 14.7596 78.5321 14.3193C78.8472 13.8283 79.2319 13.374 79.6883 12.9567C80.2104 12.4997 80.7209 12.0107 81.22 11.49C81.7493 10.9377 82.1839 10.2964 82.5251 9.56986C82.9083 8.80065 83.087 7.87827 83.087 6.824C83.087 5.57551 82.803 4.46906 82.2149 3.52518C81.657 2.57466 80.8878 1.8301 79.9152 1.29745C78.9379 0.762288 77.8405 0.5 76.635 0.5C75.3499 0.5 74.1734 0.759786 73.1154 1.28879L73.1154 1.28877L73.1114 1.29078C72.0678 1.82421 71.2318 2.60328 70.6088 3.61849L70.6088 3.61846L70.6045 3.62564C69.9949 4.6574 69.703 5.89123 69.703 7.304V7.73296L70.127 7.79819L74.287 8.43819L74.863 8.52681V7.944C74.863 7.17307 75.045 6.52169 75.3934 5.97153L75.3935 5.97156L75.3973 5.96528C75.7302 5.42211 76.1163 5.212 76.571 5.212C76.9755 5.212 77.1983 5.33128 77.3351 5.49954C77.4881 5.68755 77.607 6.02558 77.607 6.6C77.607 7.19965 77.4679 7.70135 77.2055 8.12303C76.9081 8.57838 76.5384 9.02905 76.0935 9.47441C75.6142 9.9322 75.1363 10.4321 74.6596 10.9737L74.6587 10.9747C74.1768 11.5256 73.768 12.1632 73.4303 12.8838C73.0712 13.6497 72.903 14.5586 72.903 15.592C72.903 16.8595 73.1863 17.9408 73.7961 18.7946ZM73.287 25.448V25.948H73.787H78.139H78.639V25.448V20.648V20.148H78.139H73.787H73.287V20.648V25.448Z" stroke="#6229FF"/>
<path d="M55.4056 25.4479V1.67193L59.8856 1.12793V14.2159L64.1096 7.43193H68.6216L64.3016 14.2799L68.9736 24.6479L65.0056 25.9599L61.4216 17.8319L59.8856 20.1359V25.4479H55.4056Z" fill="#6229FF"/>
<path d="M40.1508 30.408L40.9188 26.824C41.1534 26.9307 41.3774 27.0054 41.5908 27.048C41.8254 27.0907 42.0708 27.112 42.3268 27.112C43.0094 27.112 43.5641 26.8987 43.9908 26.472C44.4388 26.0454 44.6628 25.416 44.6628 24.584V23.816L40.2788 7.75204L44.7908 7.14404L47.2548 18.76L49.7828 7.40004H53.6868L49.3348 25.224C48.8868 27.0374 48.1188 28.424 47.0308 29.384C45.9428 30.344 44.5028 30.824 42.7108 30.824C42.1561 30.824 41.6974 30.792 41.3348 30.728C40.9721 30.664 40.5774 30.5574 40.1508 30.408Z" fill="#6229FF"/>
<path d="M30.3947 25.8639C28.56 25.8639 27.2053 25.0319 26.3307 23.3679C25.4773 21.7039 25.0507 19.4319 25.0507 16.5519C25.0507 14.8026 25.2427 13.2133 25.6267 11.7839C26.0107 10.3546 26.608 9.22393 27.4187 8.39193C28.2507 7.5386 29.3173 7.11193 30.6187 7.11193C31.4507 7.11193 32.144 7.30393 32.6987 7.68793C33.2533 8.0506 33.6907 8.51993 34.0107 9.09593V1.67193L38.4907 1.12793V25.1919L34.3947 25.7039V23.0479C34.096 23.9013 33.616 24.5839 32.9547 25.0959C32.2933 25.6079 31.44 25.8639 30.3947 25.8639ZM31.8667 22.4079C32.6773 22.4079 33.232 22.0026 33.5307 21.1919C33.8507 20.3813 34.0107 19.2933 34.0107 17.9279V15.2079C34.0107 13.8639 33.8613 12.7546 33.5627 11.8799C33.264 11.0053 32.7307 10.5679 31.9627 10.5679C31.1093 10.5679 30.5013 11.1226 30.1387 12.2319C29.7973 13.3199 29.6267 14.7493 29.6267 16.5199C29.6267 18.3119 29.7973 19.7413 30.1387 20.8079C30.5013 21.8746 31.0773 22.4079 31.8667 22.4079Z" fill="#6229FF"/>
<path d="M4.92496 25.4479L0.412964 1.70395L5.14896 1.09595L7.80496 18.5039L7.96496 17.3199L10.269 1.57595H14.909L17.213 18.8559L20.285 1.44795H24.221L19.517 25.4479H14.717L12.413 8.35995L9.94896 25.4479H4.92496Z" fill="#6229FF"/>
</svg>

<svg xmlns="http://www.w3.org/2000/svg" width="84" height="31" fill="none" viewBox="0 0 84 31">
    <path stroke="#6229FF" d="m73.796 18.795.19.266.32-.068 3.936-.832.706-.149-.387-.608a4.3 4.3 0 0 1-.335-.637 2.8 2.8 0 0 1-.099-.791c0-.671.143-1.216.405-1.657q.472-.736 1.156-1.362a24 24 0 0 0 1.532-1.467 7.1 7.1 0 0 0 1.305-1.92c.383-.77.562-1.692.562-2.746 0-1.248-.284-2.355-.872-3.299a5.9 5.9 0 0 0-2.3-2.228C78.938.762 77.84.5 76.635.5c-1.285 0-2.462.26-3.52.789l-.004.002a6.2 6.2 0 0 0-2.502 2.327l-.004.008c-.61 1.031-.902 2.265-.902 3.678v.429l.424.065 4.16.64.576.089v-.583c0-.77.182-1.422.53-1.972l.004-.007c.333-.543.72-.753 1.174-.753.404 0 .627.12.764.288.153.188.272.526.272 1.1 0 .6-.14 1.101-.401 1.523a8.5 8.5 0 0 1-1.112 1.351q-.72.687-1.434 1.5h-.001a8 8 0 0 0-1.229 1.91c-.359.766-.527 1.675-.527 2.708 0 1.268.283 2.349.893 3.203Zm-.509 6.653v.5h5.352v-5.8h-5.352z"/>
    <path fill="#6229FF" d="M55.406 25.448V1.672l4.48-.544v13.088l4.224-6.784h4.512l-4.32 6.848 4.672 10.368-3.968 1.312-3.584-8.128-1.536 2.304v5.312zm-15.256 4.96.769-3.584q.351.16.672.224.352.064.736.064 1.023 0 1.664-.64.672-.64.672-1.888v-.768L40.279 7.752l4.512-.608 2.464 11.616L49.783 7.4h3.904l-4.352 17.824q-.672 2.72-2.304 4.16t-4.32 1.44a8 8 0 0 1-1.376-.096 7.6 7.6 0 0 1-1.184-.32m-9.756-4.544q-2.753 0-4.064-2.496-1.28-2.496-1.28-6.816 0-2.625.576-4.768.576-2.145 1.792-3.392 1.248-1.28 3.2-1.28 1.248 0 2.08.576.832.544 1.312 1.408V1.672l4.48-.544v24.064l-4.096.512v-2.656q-.449 1.28-1.44 2.048-.993.768-2.56.768m1.472-3.456q1.215 0 1.664-1.216.48-1.216.48-3.264v-2.72q0-2.016-.448-3.328t-1.6-1.312q-1.281 0-1.824 1.664-.512 1.632-.512 4.288 0 2.688.512 4.288.543 1.6 1.728 1.6m-26.942 3.04L.413 1.704l4.736-.608 2.656 17.408.16-1.184 2.304-15.744h4.64l2.304 17.28 3.072-17.408h3.936l-4.704 24h-4.8L12.413 8.36 9.949 25.448z"/>
</svg>
